X: 32640
T: Plenty Of Hornpipe
R: reel
M: 4/4
K: Adorian
|:A2AA A2AA|ABce g4|ed3 d4|e4 edcB|
A2eA A2AA|ABce g4|ed3 ~B2G2|1 A2AA A2AA:|2 A2ee e2g2||
|:a4 a2g2|fed2 g4|eA3 A4|ABcd e4|
eA3 A4|ABce g4|ed3 ~B2G2|1 A2ee e2g2:|2 A2AA A2AA||

